X: 11383
T: Earl's Tomb, The
R: reel
M: 4/4
K: Amajor
|:Ec c/c/c ec c/c/A|B/B/B Bc B2 Az|Ec c/c/c ec c/c/c|faec AB Bz|
Ec c/c/c eAcA|B2 Bc BAA z|EAca f/a/f ec|1 BAGB A2 z F:|2 BAGB A4||
|:ea a/a/a baag|faef =c^c cA|Eccd ec c/c/c|dz ^dz e2 fa|
e/f/e ef ecBA|Ecec BcAF|EAca f/a/f ec|BAGB A3 z:|

